svg/Gray/newsheet.svg

<svg height="48" viewBox="0 0 48 48" width="48" xmlns="http://www.w3.org/2000/svg"><g stroke="#0066b3" stroke-linecap="round" stroke-width="1.5"><g stroke-linejoin="round" transform="translate(3.094272 1.554399)"><path d="m39.111223 37.403963-33.4399764.000086-1.9505183-.697525-1.0204958-1.64466v-1.508424l1.124802-1.612471 1.1196831-.600688" fill="none"/><path d="m4.9447176 31.340281 1.5937403-.304668 2.0623961-.046338v-23.4845304l-3.8881688-.017591-1.3183687 1.037345-.694084 1.7028784v24.834487" fill="none"/><g fill="#0066b3" fill-opacity=".34902"><path d="m39.111223 37.403963v-27.216177"/><path d="m8.5968322 10.231398 30.5143908-.043612"/></g></g><g fill="none" transform="translate(2.830217 -.503814)"><path d="m23.997759 17.344548.02094 17.019079"/><path d="m15.610555 26.121226 17.019078-.02095"/></g></g></svg>

<?xml version="1.0" encoding="UTF-8" standalone="no"?>
<!-- Generator: Adobe Illustrator 19.0.0, SVG Export Plug-In . SVG Version: 6.00 Build 0)  -->

<svg
   version="1.1"
   id="Layer_1"
   x="0px"
   y="0px"
   viewBox="0 0 48 48"
   xml:space="preserve"
   sodipodi:docname="sheet.svg"
   width="48"
   height="48"
   inkscape:version="1.2.2 (b0a8486541, 2022-12-01)"
   xmlns:inkscape="http://www.inkscape.org/namespaces/inkscape"
   xmlns:sodipodi="http://sodipodi.sourceforge.net/DTD/sodipodi-0.dtd"
   xmlns="http://www.w3.org/2000/svg"
   xmlns:svg="http://www.w3.org/2000/svg"><defs
   id="defs47" /><sodipodi:namedview
   id="namedview45"
   pagecolor="#ffffff"
   bordercolor="#666666"
   borderopacity="1.0"
   inkscape:pageshadow="2"
   inkscape:pageopacity="0.0"
   inkscape:pagecheckerboard="0"
   showgrid="false"
   inkscape:zoom="10.65625"
   inkscape:cx="10.651026"
   inkscape:cy="26.27566"
   inkscape:window-width="1920"
   inkscape:window-height="1015"
   inkscape:window-x="1366"
   inkscape:window-y="37"
   inkscape:window-maximized="1"
   inkscape:current-layer="Layer_1"
   inkscape:showpageshadow="2"
   inkscape:deskcolor="#d1d1d1" />


<g
   id="g14">
</g>
<g
   id="g16">
</g>
<g
   id="g18">
</g>
<g
   id="g20">
</g>
<g
   id="g22">
</g>
<g
   id="g24">
</g>
<g
   id="g26">
</g>
<g
   id="g28">
</g>
<g
   id="g30">
</g>
<g
   id="g32">
</g>
<g
   id="g34">
</g>
<g
   id="g36">
</g>
<g
   id="g38">
</g>
<g
   id="g40">
</g>
<g
   id="g42">
</g>
<g
   id="g1048"
   transform="translate(3.0942722,1.5543986)"><path
     style="fill:none;fill-opacity:0.34902;stroke:#0066b3;stroke-width:1.5;stroke-linecap:round;stroke-linejoin:round;stroke-dasharray:none"
     d="M 39.111223,37.403963 5.6712466,37.404049 3.7207283,36.706524 2.7002325,35.061864 V 33.55344 l 1.124802,-1.612471 1.1196831,-0.600688"
     id="path433"
     sodipodi:nodetypes="ccccccc" /><path
     style="fill:none;fill-opacity:0.34902;stroke:#0066b3;stroke-width:1.5;stroke-linecap:round;stroke-linejoin:round;stroke-dasharray:none"
     d="M 4.9447176,31.340281 6.5384579,31.035613 8.600854,30.989275 V 7.5047446 L 4.7126852,7.4871536 3.3943165,8.5244986 2.7002325,10.227377 v 24.834487"
     id="path435"
     sodipodi:nodetypes="cccccccc" /><path
     style="fill:#0066b3;fill-opacity:0.34902;stroke:#0066b3;stroke-width:1.5;stroke-linecap:round;stroke-linejoin:round;stroke-dasharray:none"
     d="M 39.111223,37.403963 V 10.187786"
     id="path437"
     sodipodi:nodetypes="cc" /><path
     style="fill:#0066b3;fill-opacity:0.34902;stroke:#0066b3;stroke-width:1.5;stroke-linecap:round;stroke-linejoin:round;stroke-dasharray:none"
     d="M 8.5968322,10.231398 39.111223,10.187786"
     id="path439"
     sodipodi:nodetypes="cc" /></g><g
   id="g1248"
   transform="translate(2.8302167,-0.5038144)"><path
     style="fill:none;stroke:#0066b3;stroke-width:1.5;stroke-linecap:round;stroke-linejoin:miter;stroke-miterlimit:4;stroke-dasharray:none;stroke-opacity:1"
     d="m 23.997759,17.344548 0.02094,17.019079"
     id="path7-36"
     sodipodi:nodetypes="cc" /><path
     style="fill:none;stroke:#0066b3;stroke-width:1.5;stroke-linecap:round;stroke-linejoin:miter;stroke-miterlimit:4;stroke-dasharray:none;stroke-opacity:1"
     d="m 15.610555,26.121226 17.019078,-0.02095"
     id="path7-3-7"
     sodipodi:nodetypes="cc" /></g></svg>
